Numix-GalliumOS/64/actions/package-available-locked.svg

<?xml version="1.0" encoding="UTF-8" standalone="no"?>
<svg
   xmlns:dc="http://purl.org/dc/elements/1.1/"
   xmlns:cc="http://creativecommons.org/ns#"
   xmlns:rdf="http://www.w3.org/1999/02/22-rdf-syntax-ns#"
   xmlns:svg="http://www.w3.org/2000/svg"
   xmlns="http://www.w3.org/2000/svg"
   xmlns:sodipodi="http://sodipodi.sourceforge.net/DTD/sodipodi-0.dtd"
   xmlns:inkscape="http://www.inkscape.org/namespaces/inkscape"
   width="64"
   height="64"
   viewBox="0 0 64 64"
   id="svg2"
   version="1.1"
   inkscape:version="0.91 r"
   sodipodi:docname="package-available-locked.svg">
  <metadata
     id="metadata18">
    <rdf:RDF>
      <cc:Work
         rdf:about="">
        <dc:format>image/svg+xml</dc:format>
        <dc:type
           rdf:resource="http://purl.org/dc/dcmitype/StillImage" />
      </cc:Work>
    </rdf:RDF>
  </metadata>
  <defs
     id="defs16" />
  <sodipodi:namedview
     pagecolor="#ffffff"
     bordercolor="#666666"
     borderopacity="1"
     objecttolerance="10"
     gridtolerance="10"
     guidetolerance="10"
     inkscape:pageopacity="0"
     inkscape:pageshadow="2"
     inkscape:window-width="1366"
     inkscape:window-height="747"
     id="namedview14"
     showgrid="true"
     inkscape:zoom="1.84375"
     inkscape:cx="-27.052315"
     inkscape:cy="47.032592"
     inkscape:window-x="0"
     inkscape:window-y="21"
     inkscape:window-maximized="1"
     inkscape:current-layer="svg2">
    <inkscape:grid
       type="xygrid"
       id="grid3045" />
  </sodipodi:namedview>
  <path
     style="fill:#c19553"
     inkscape:connector-curvature="0"
     id="path6"
     d="M 4,0 C 2.257812,0 0,2.257812 0,4 l 0,52 c 0,1.648438 2.351562,4 4,4 l 52,0 c 1.648438,0 4,-2.351562 4,-4 L 60,4 C 60,2.351562 57.648438,0 56,0 z" />
  <path
     style="fill:#ffffff;fill-opacity:0.19599998"
     inkscape:connector-curvature="0"
     id="path8"
     d="M 4,0 C 2.257812,0 0,2.257812 0,4 l 0,16 c 6.773438,0 53.226562,0 60,0 L 60,4 C 60,2.351562 57.648438,0 56,0 z" />
  <path
     style="fill:#ffffff;fill-opacity:0.39200003"
     inkscape:connector-curvature="0"
     id="path10"
     d="m 24,8 0,24 12,0 0,-24 z" />
  <g
     id="g4150"
     transform="matrix(0.46875,0,0,0.46875,35.875,34)">
    <path
       id="path4140"
       d="m 32,0 c 0,0 20,0.0351562 20.019531,14.1875 l 0,12.21875 c 0,0 7.980469,0 7.980469,3.210938 L 60,58.90625 C 60,61.601562 57.140625,64 54,64 L 10,64 C 6.859375,64 4,61.601562 4,58.90625 L 4,29.617188 c 0,-3.210938 8.085938,-3.234376 8.085938,-3.234376 l -0.25,-12.195312 C 12,0.0195312 32,0 32,0 Z m 0,7.101562 c 0,0 -12,0 -12,10.628907 l 0,8.675781 24,0 0,-8.675781 C 44,7.101562 32,7.101562 32,7.101562 Z"
       style="fill:#268bd2"
       inkscape:connector-curvature="0" />
    <path
       id="path4142"
       d="m 32,36 c -4.417969,0 -8,3.582031 -8,8 0,2.957031 1.613281,5.492188 4,6.875 l 0,9.125 8,0 0,-9.125 c 2.386719,-1.382812 4,-3.917969 4,-6.875 0,-4.417969 -3.582031,-8 -8,-8 z"
       style="fill:#000000;fill-opacity:0.10199998;fill-rule:evenodd"
       inkscape:connector-curvature="0" />
  </g>
</svg>

<svg xmlns="http://www.w3.org/2000/svg" viewBox="0 0 64 64">
 <path d="m 4 0 c -1.742 0 -4 2.258 -4 4 l 0 52 c 0 1.648 2.352 4 4 4 l 52 0 c 1.648 0 4 -2.352 4 -4 l 0 -52 c 0 -1.648 -2.352 -4 -4 -4 z" style="fill:#c19553"/>
 <path d="m 4 0 c -1.742 0 -4 2.258 -4 4 l 0 16 c 6.773 0 53.23 0 60 0 l 0 -16 c 0 -1.648 -2.352 -4 -4 -4 z" style="fill:#fff;fill-opacity:0.196"/>
 <path d="m 24 8 0 24 12 0 0 -24 z" style="fill:#fff;fill-opacity:0.392"/>
 <g transform="matrix(0.46875,0,0,0.46875,35.875,34)">
  <path d="m 32 0 c 0 0 20 0.035 20.02 14.188 l 0 12.219 c 0 0 7.98 0 7.98 3.211 l 0 29.29 c 0 2.695 -2.859 5.094 -6 5.094 l -44 0 c -3.141 0 -6 -2.398 -6 -5.094 l 0 -29.29 c 0 -3.211 8.09 -3.234 8.09 -3.234 l -0.25 -12.195 c 0.164 -14.168 20.16 -14.187 20.16 -14.187 m 0 7.102 c 0 0 -12 0 -12 10.629 l 0 8.676 24 0 0 -8.676 c 0 -10.629 -12 -10.629 -12 -10.629" style="fill:#268bd2"/>
  <path d="m 32 36 c -4.418 0 -8 3.582 -8 8 0 2.957 1.613 5.492 4 6.875 l 0 9.125 8 0 0 -9.125 c 2.387 -1.383 4 -3.918 4 -6.875 0 -4.418 -3.582 -8 -8 -8 z" style="fill:#000;fill-opacity:0.102;fill-rule:evenodd"/>
 </g>
</svg>
